X:1
T:Love Found a Way
T:Love Found a Way
T:Harry Dixon Loes
T:Avis Marguerite Burgeson Christiansen, 1915
T:Public Domain Courtesy of the Cyber Hymnal™
T:Public Domain Courtesy of the Cyber Hymnal™
C:Harry Dixon Loes
Z:Public Domain
Z:Courtesy of the Cyber Hymnal™
%%score ( 1 2 ) ( 3 4 )
L:1/8
Q:1/4=105
M:6/8
K:Ab
V:1 treble 
V:2 treble 
V:3 bass 
V:4 bass 
V:1
 [CE][CF][CG] [CA]2 [DB] | [Ec]2 [CA] [CE]3 | E3 [=DF]2 [FA] | [EG]6 | [DE][DG][CA] [EB]2 [Ec] | %5
w: 1.~Won- der- ful love that|res- cued me,|sunk deep in|sin,|Guilt- y and vile as|
w: 2.~Love brought my Sav- ior|here to die|on Cal- va-|ry,|For such a sin- ful|
w: 3.~Love o- pened wide the|gates of light|to Heav’n’s do-|main,|Where in e- ter- nal|
 [Ed]2 [DB] [DG]3 | [DF]3 [DE]2 [Fd] | [Ec]6 | [CE][CF][CG] [CA]2 [DB] | %9
w: I could be—|no hope with-|in;|When ev- ery ray of|
w: wretch as I,|how can it|be?|Love bridged the gulf ’twixt|
w: power and might|Je- sus shall|reign.|Love lift- ed me from|
 [Ec]2 [CA] [CE]3 [DF]3 [FB]2 [Fc] | [Fd]6 | [Gd][Gd][Fd] [Ec]2 [EB] | [Ee]2 [Ec] [CA]3 | %13
w: light had fled, O glor- ious|day!|Rais- ing my soul from|out the dead,|
w: me and Heav’n, taught me to|pray,|I am re- deemed, set|free, for- giv’n,|
w: depths of woe to end- less|day,|There was no help in|earth be- low;|
 [Ec]3 [DB]2 [DB] | [CA]6 ||"^Refrain" [Ec]3 [CA]2 [DF] | [CE]3- [CE][A,C][B,D] | [CE]3 A3 | %18
w: love found a|way.|Love found a|way, * to re-|deem my|
w: love found a|way.||||
w: love found a|way.||||
 [DG]6 | [Ed]3 [DB]2 [DG] | [DE]3- [DE][DF][DG] | [CA]3 [EB]3 | [Ec]6 | [Ec]3 [CA]2 [DF] | %24
w: soul,|Love found a|way, * that could|make me|whole.|Love sent my|
w: ||||||
w: ||||||
 [CE]3- [CE][A,C][B,D] | [CE]3 A3 | [DF]6 | [DF]3 [FA]2 [_Fd] | [Ec]3 [_Ge]3 | %29
w: Lord * to the|cross of|shame,|Love found a|way, O|
w: |||||
w: |||||
 [Fe]2 [_Fd] [Ec]2 [DB] | [CA]6 |] %31
w: praise His ho- ly|name!|
w: ||
w: ||
V:2
 x6 | x6 | E3 x3 | x6 | x6 | x6 | x6 | x6 | x6 | x12 | x6 | x6 | x6 | x6 | x6 || x6 | x6 | %17
 x3 (E2 E) | x6 | x6 | x6 | x6 | x6 | x6 | x6 | x3 (C2 E) | x6 | x6 | x6 | x6 | x6 |] %31
V:3
 [A,,A,][A,,A,][A,,A,] [A,,E,]2 [A,,E,] | [A,,A,]2 [A,,A,] [A,,A,]3 | [C,A,]3 [B,,A,]2 [=D,B,] | %3
w: ~ ~ ~ ~ ~|~ ~ ~|~ ~ ~|
 [E,B,]6 | [E,G,][E,B,][E,A,] [E,G,]2 [E,A,] | [E,B,]2 [E,G,] [E,B,]3 | [E,A,]3 [E,G,]2 [E,G,] | %7
w: ~|~ ~ ~ ~ ~|~ ~ ~|~ ~ ~|
 [A,,A,]6 | [A,,A,][A,,A,][A,,A,] [A,,E,]2 [A,,E,] | %9
w: ~|~ ~ ~ ~ ~|
 [A,,A,]2 [A,,A,] [A,,A,]3 [D,A,]3 [D,A,]2 [C,=A,] | [B,,B,]6 | [E,B,][E,B,][E,A,] [E,G,]2 [D,G,] | %12
w: ~ ~ ~ ~ ~ ~|~|~ ~ ~ ~ ~|
 [C,A,]2 [C,A,] [F,A,]3 | [E,A,]3 [E,G,]2 E, | [A,,E,]6 || [A,,A,]3 [A,,E,]2 [A,,F,] | %16
w: ~ ~ ~|~ ~ ~|~|~ ~ ~|
 [A,,A,]2 [A,,A,] [A,,A,][A,,E,][A,,E,] | [A,,A,]3 [A,,E,]2 [C,A,] | [E,B,]2 [E,B,] [E,B,]3 | %19
w: ~ a way, ~ ~|~ to re-|deem my soul,|
 [E,B,]3 [E,G,]2 [E,B,] | [E,G,]2 [E,G,] [E,G,][E,A,][E,B,] | [F,A,]3 [E,G,]2 [E,G,] | A,2 A, A,3 | %23
w: ~ ~ ~|~ a way, ~ ~|~ ~ could|make me whole;|
 [A,,A,]3 [A,,E,]2 [A,,F,] | [A,,A,]2 [A,,A,] [A,,A,][A,,E,][A,,E,] | [A,,A,]3 [A,,E,]2 [C,A,] | %26
w: ~ ~ ~|~ my Lord ~ ~|~ to the|
 [D,A,]2 [D,A,] [D,A,]3 | [D,A,]3 [D,A,]2 [D,A,] | [A,,A,]3 [C,A,]3 | [D,A,]2 [D,A,] [E,A,]2 E, | %30
w: cross of shame,||||
 [A,,E,]6 |] %31
w: |
V:4
 x6 | x6 | x6 | x6 | x6 | x6 | x6 | x6 | x6 | x12 | x6 | x6 | x6 | x5 E, | x6 || x6 | x6 | x6 | %18
 x6 | x6 | x6 | x6 | x6 | x6 | x6 | x6 | x6 | x6 | x6 | x6 | x6 |] %31

